X: 10472
T: WILL YE COME TO THE BOWER
Q: "Andantino"
%R: march
B: "Edinburgh Repository of Music" v.1 p.47 #2
F: http://digital.nls.uk/special-collections-of-printed-music/pageturner.cfm?id=87776133
Z: 2015 John Chambers <jc:trillian.mit.edu>
N: The rhythm isn't correct at the strain boundaries.
M: 2/4
L: 1/8
K: F
AB |\
c2cc | c2cc | (cf) ed | {d}c2 zc |\
(cB) BB | BA zA | cB zG | F2 :|
|:\
FA AA | FA AA | c2 BB | {B}A2 z2 |\
FA AA | FA AA | (c=B) _BG | F2 z2 :|
